X:1
T:Title
%%score { ( 1 3 ) | ( 2 4 ) }
L:1/8
Q:1/4=96
M:4/4
K:Bb
V:1 treble nm="Grand Piano"
V:3 treble 
V:2 bass 
V:4 bass 
V:1
 [Fd]4 [EA]2 [Ec]2 | [DB]6 [DF]2 | F4 F4 | [DF]6 F2 | B4 A2 G2 | c4 z2 G2 | [FA]4 [=EG]4 | F6 z2 | %8
w: B.~D.~Ackley * *||||||||
[Q:1/4=106] F2 GG A2 B2 | c2 B2 A4 | A2 BB c2 B2 | z4 c4 | [DB]2 [DB]2 [DB]2 [DF]2 | %13
w: |||||
 G2 G2 G2 [FG]2 | [=Ec]2 [Ec]2 [Fc]2 [CGB]2 | [CFA]2 [CFA]2 [CFA]2 [A,F]2 | [B,FB]2 c2 d2 [FB]2 | %17
w: ||||
[M:9/8] z2 d- d z z z3 |[M:4/4] G2 G2 F2 z F | .F2 F2 [DF]4 |] %20
w: |||
V:2
 [B,,B,]4 [F,C]2 [F,A,]2 | [B,,B,]6 [B,,B,]2 | [F,E]4 [F,E]4 | [B,,B,]6 [B,D]2 | %4
 [G,B,D]4 [C=E]2 [B,CE]2 | [A,CF]4 [D,=B,]4 | [C,C]4 [C,B,]4 | [F,A,C]6 z2 | %8
 [F,A,E]2 [F,B,E][F,B,E] [F,CE]2 [F,DF]2 | [F,EF]2 [F,DF]2 [F,CF]4 | %10
 [F,CF]2 [F,DF][F,DF] [F,EF]2 [F,DF]2 | [A,CF]2 [B,F]2 F2 z2 | %12
 [B,,F,]2 [B,,F,]2 [B,,F,]2 [B,,B,]2 | [E,B,E]2 [E,B,E]2 [E,B,E]2 [D,=B,]2 | %14
 [C,B,]2 [C,G,]2 [D,G,]2 =E,2 | F,2 F,2 F,G,F,E, | D,2[K:treble] [F,A,F]2 [B,F]2[K:bass] [D,B,]2 | %17
[M:9/8] z2[K:treble] F z3[K:bass] z3 |[M:4/4] [=E,B,_D]2 [E,B,D]2 [F,B,=D]2 z [F,B,D] | %19
 .[F,A,C]2 [F,A,E]2 [B,,B,]4 |] %20
V:3
 x8 | x8 | z2 A,2 z2 A,2 | x8 | x8 | z4 F4 | x8 | x8 | x8 | x8 | x8 | e2 d2 z2 E2 | x8 | x8 | x8 | %15
 x8 | x8 |[M:9/8] .c3 _A [Ge]2- [Ge] [Ge]2 |[M:4/4] x8 | x8 |] %20
V:4
 x8 | x8 | B,2 z2 G,2 z2 | x8 | x8 | x8 | x8 | x8 | x8 | x8 | x8 | z4 [F,A,]4 | x8 | x8 | x8 | x8 | %16
 x2[K:treble] x4[K:bass] x2 |[M:9/8] [F,A,F]2[K:treble] B,- B,[K:bass] [E,B,]2- [E,B,] [E,B,]2 | %18
[M:4/4] x8 | x8 |] %20

